X:45
T:Glen of Copsewood, The
T:Airidh nam badan
R:Slow Air
S:Simon Fraser Collection
N:No.38
O:Scottish
M:6/8
L:1/8
Q:3/8=50
K:F
(3f/e/d/|cAG/F/ F>GA/B/|c>dc cAF|A2 G/F/ GAc|d3 f2 (3f/e/d/|
cAG/F/ F>GA/B/|c>dc cAF|A2 G/F/ GAc|d3 c2:|
|:A/B/|cdf g>fg|a2 g/f/ fdc|d>cd cdf|g3 d f/e/f/g/|aff gdd|fcc ~d>ef|
A2 G/F/ GAc|1 d3 f2:|2 d3 c2||

